X: 21793
T: The BONNIE BRIER-BUSH
Q: "Slow."
%R: strathspey
B: W. Hamilton "Universal Tune-Book" Vol. 2 Glasgow 1846 p.179 #3
S: http://s3-eu-west-1.amazonaws.com/itma.dl.printmaterial/book_pdfs/hamiltonvol2web.pdf
Z: 2016 John Chambers <jc:trillian.mit.edu>
N: Fixed the rhythm in bar 1 by ignoring the dot after the c, as in bars 3, 5, 7 and 11.
M: C
L: 1/8
K: C
% - - - - - - - - - - - - - - - - - - - - - - - - -
A |\
G<G G>A G>AcG | A2 d>e d2 cd/e/ |\
G2 G>A G>AcG | A2 c>{e}d c3 :|\
d/e/ |\
f>gaf e<g ze/g/ | {g}f>e dc d2 cd/e/ |
G2 G>A G>A cG | A2 c>{e}d c3 d/e/ |\
f>gaf e<g ze | fedc {e}d2 ef/g/ |\
G<G G>A G>AcG | A2 c>{e}d c3 |]
% - - - - - - - - - - - - - - - - - - - - - - - - -

%%sep 1 1 500
%%sep 1 1 500

